packages/bezier-icons/icons/check-verification-filled.svg

<svg width="24" height="24" viewBox="0 0 24 24" fill="none" xmlns="http://www.w3.org/2000/svg">
<path fill-rule="evenodd" clip-rule="evenodd" d="M13.3592 1.25926C12.5923 0.548777 11.4077 0.548777 10.6408 1.25926L9.58614 2.23632C9.26899 2.53015 8.84048 2.67284 8.4105 2.62782L6.99803 2.47991C5.97768 2.37306 5.04197 3.05559 4.83205 4.05981L4.50746 5.61258C4.42229 6.02005 4.17162 6.3738 3.81541 6.58921L2.48329 7.39479C1.63205 7.90957 1.28854 8.97174 1.67716 9.88748L2.32497 11.414C2.48389 11.7885 2.48389 12.2115 2.32497 12.586L1.67716 14.1125C1.28854 15.0283 1.63204 16.0904 2.48329 16.6052L3.81541 17.4108C4.17162 17.6262 4.42229 17.9799 4.50746 18.3874L4.83205 19.9402C5.04197 20.9444 5.97768 21.6269 6.99803 21.5201L8.4105 21.3722C8.84048 21.3272 9.26899 21.4699 9.58614 21.7637L10.6408 22.7407C11.4077 23.4512 12.5923 23.4512 13.3592 22.7407L14.4139 21.7637C14.731 21.4699 15.1595 21.3272 15.5895 21.3722L17.002 21.5201C18.0223 21.6269 18.958 20.9444 19.1679 19.9402L19.4925 18.3874C19.5777 17.98 19.8284 17.6262 20.1846 17.4108L21.5167 16.6052C22.368 16.0904 22.7115 15.0283 22.3228 14.1125L21.675 12.586C21.5161 12.2115 21.5161 11.7885 21.675 11.414L22.3228 9.88749C22.7115 8.97174 22.368 7.90957 21.5167 7.39479L20.1846 6.58921C19.8284 6.3738 19.5777 6.02005 19.4925 5.61258L19.1679 4.05981C18.958 3.05559 18.0223 2.37306 17.002 2.47991L15.5895 2.62782C15.1595 2.67284 14.731 2.53015 14.4139 2.23632L13.3592 1.25926ZM8.08406 11.6708L10.4035 13.898L15.852 8.77854C16.2544 8.40048 16.887 8.42018 17.2651 8.82254C17.6431 9.22487 17.6234 9.85746 17.2212 10.2355L11.1002 15.9881C10.7014 16.3629 10.0788 16.3596 9.68408 15.9805L6.69867 13.1135C6.30037 12.731 6.28747 12.0981 6.66987 11.6997C7.05239 11.3011 7.6856 11.2882 8.08406 11.6708Z" fill="#313234"/>
</svg>

<svg xmlns="http://www.w3.org/2000/svg" width="24" height="24" fill="none" viewBox="0 0 24 24"><path fill="#313234" fill-rule="evenodd" d="M13.36 1.26a2 2 0 0 0-2.72 0l-1.054.976a1.5 1.5 0 0 1-1.175.392L6.998 2.48a2 2 0 0 0-2.166 1.58l-.325 1.553a1.5 1.5 0 0 1-.692.976l-1.332.806a2 2 0 0 0-.806 2.492l.648 1.527a1.5 1.5 0 0 1 0 1.172l-.648 1.527a2 2 0 0 0 .806 2.492l1.332.806a1.5 1.5 0 0 1 .692.976l.325 1.553a2 2 0 0 0 2.166 1.58l1.413-.148a1.5 1.5 0 0 1 1.175.392l1.055.977a2 2 0 0 0 2.718 0l1.055-.977a1.5 1.5 0 0 1 1.175-.392l1.413.148a2 2 0 0 0 2.166-1.58l.325-1.553a1.5 1.5 0 0 1 .692-.976l1.332-.806a2 2 0 0 0 .806-2.492l-.648-1.527a1.5 1.5 0 0 1 0-1.172l.648-1.527a2 2 0 0 0-.806-2.492l-1.332-.806a1.5 1.5 0 0 1-.692-.976l-.325-1.553a2 2 0 0 0-2.166-1.58l-1.412.148a1.5 1.5 0 0 1-1.176-.392zM8.083 11.67l2.32 2.228 5.448-5.12a1 1 0 0 1 1.37 1.457L11.1 15.989a1.03 1.03 0 0 1-1.416-.008L6.7 13.113a1 1 0 0 1 1.385-1.442" clip-rule="evenodd"/></svg>
